src/epub/images/titlepage.svg

<?xml version="1.0" encoding="utf-8"?>
<svg xmlns="http://www.w3.org/2000/svg" xmlns:svg="http://www.w3.org/2000/svg" version="1.1" viewBox="0 0 1400 340">
	<title>The titlepage for the Standard Ebooks edition of The Little White Bird, by J. M. Barrie</title>
	<g>
		<path d="m 108.35087,68.245613 18.33918,0 0,61.754387 17.59064,0 0,-61.754387 18.33918,0 0,-15.438597 -54.269,0 0,15.438597 z"/>
		<path d="m 191.54531,99.029239 24.88889,0 0,30.970761 17.59065,0 0,-77.192984 -17.59065,0 0,30.783626 -24.88889,0 0,-30.783626 -17.59064,0 0,77.192984 17.59064,0 0,-30.970761 z"/>
		<path d="m 294.39035,52.807016 -44.16375,0 0,77.192984 44.16375,0 0,-15.4386 -26.5731,0 0,-15.532161 25.45029,0 0,-15.438597 -25.45029,0 0,-15.345029 26.5731,0 0,-15.438597 z"/>
		<path d="m 357.67836,52.807016 -17.59064,0 0,77.192984 44.16374,0 0,-15.4386 -26.5731,0 0,-61.754384 z"/>
		<path d="m 415.49268,52.807016 -17.59065,0 0,77.192984 17.59065,0 0,-77.192984 z"/>
		<path d="m 422.34211,68.245613 18.33918,0 0,61.754387 17.59064,0 0,-61.754387 18.33919,0 0,-15.438597 -54.26901,0 0,15.438597 z"/>
		<path d="m 484.35966,68.245613 18.33918,0 0,61.754387 17.59064,0 0,-61.754387 18.33918,0 0,-15.438597 -54.269,0 0,15.438597 z"/>
		<path d="m 567.55408,52.807016 -17.59064,0 0,77.192984 44.16374,0 0,-15.4386 -26.5731,0 0,-61.754384 z"/>
		<path d="m 651.94151,52.807016 -44.16374,0 0,77.192984 44.16374,0 0,-15.4386 -26.5731,0 0,-15.532161 25.45029,0 0,-15.438597 -25.45029,0 0,-15.345029 26.5731,0 0,-15.438597 z"/>
		<path d="m 748.82603,130 19.46199,0 21.9883,-77.192984 -19.46199,0 -13.19298,52.959064 -0.46784,0 -14.03508,-52.959064 -13.28655,0 -14.03509,52.959064 -0.46784,0 -13.19298,-52.959064 -19.55556,0 L 704.56872,130 724.12427,130 736.47515,86.678362 748.82603,130 Z"/>
		<path d="m 817.08624,99.029239 24.88889,0 0,30.970761 17.59065,0 0,-77.192984 -17.59065,0 0,30.783626 -24.88889,0 0,-30.783626 -17.59064,0 0,77.192984 17.59064,0 0,-30.970761 z"/>
		<path d="m 893.35822,52.807016 -17.59065,0 0,77.192984 17.59065,0 0,-77.192984 z"/>
		<path d="m 900.20762,68.245613 18.33918,0 0,61.754387 17.59064,0 0,-61.754387 18.33918,0 0,-15.438597 -54.269,0 0,15.438597 z"/>
		<path d="m 1009.9751,52.807016 -44.1637,0 0,77.192984 44.1637,0 0,-15.4386 -26.57306,0 0,-15.532161 25.45026,0 0,-15.438597 -25.45026,0 0,-15.345029 26.57306,0 0,-15.438597 z"/>
		<path d="m 1055.6725,52.807016 0,77.192984 29.2866,0 c 16,0 25.2632,-8.79532 25.2632,-21.52047 0,-12.444443 -6.8305,-17.777776 -16.4679,-19.461987 6.5497,-3.368421 9.6374,-9.450292 9.6374,-16.561404 0,-14.690058 -10.4795,-19.649123 -23.766,-19.649123 l -23.9533,0 z m 17.5907,30.222223 0,-16.654971 1.4035,0 c 7.6725,0 11.6959,2.339181 11.6959,7.859649 0,6.456141 -4.117,8.795322 -11.6959,8.795322 l -1.4035,0 z m 0,33.403511 0,-18.245616 5.5205,0 c 8.3274,0 12.9122,2.526316 12.9122,9.637426 0,6.08187 -4.5848,8.60819 -12.9122,8.60819 l -5.5205,0 z"/>
		<path d="m 1140.5804,52.807016 -17.5907,0 0,77.192984 17.5907,0 0,-77.192984 z"/>
		<path d="m 1156.8641,52.807016 0,77.192984 17.5906,0 0,-30.502925 23.579,30.502925 22.3625,0 -26.5731,-31.906433 c 9.4503,-2.994152 15.8129,-10.760234 15.8129,-22.362574 0,-15.157895 -10.8538,-22.923977 -25.1696,-22.923977 l -27.6023,0 z m 17.5906,34.245615 0,-20.210527 2.0585,0 c 6.6433,0 14.5965,0.467836 14.5965,10.105263 0,9.637428 -7.9532,10.105264 -14.5965,10.105264 l -2.0585,0 z"/>
		<path d="m 1228.9328,52.807016 0,77.192984 22.3626,0 c 21.2397,0 38.9239,-16.09357 38.9239,-38.643276 0,-22.45614 -17.7777,-38.549708 -38.9239,-38.549708 l -22.3626,0 z m 17.5906,61.473684 0,-45.754385 2.7135,0 c 13.0994,0 21.9883,10.011696 21.9883,22.923977 -0.094,12.912278 -8.9825,22.830408 -21.9883,22.830408 l -2.7135,0 z"/>
	</g>
	<g>
		<path d="m 476.91722,232.10526 -13.19299,0 0,38.17544 c 0,5.82456 -2.87719,8.14035 -6.66666,8.14035 -3.36842,0 -7.50877,-3.92982 -7.50877,-3.92982 l -4.21053,11.01754 c 0,0 5.26316,5.54386 13.54386,5.54386 11.57895,0 18.03509,-6.03509 18.03509,-17.40351 l 0,-41.54386 z"/>
		<path d="m 497.61897,274.98246 c -4.42105,0 -8,3.57894 -8,8.07017 0,4.42105 3.57895,8 8,8 4.49123,0 8.07018,-3.57895 8.07018,-8 0,-4.49123 -3.57895,-8.07017 -8.07018,-8.07017 z"/>
		<path d="m 591.20121,290 13.19298,0 -5.19298,-57.89474 -14.03509,0 -12.8421,33.40351 -12.84211,-33.40351 -14.03509,0 -5.19298,57.89474 13.19298,0 2.73684,-34.31579 0.35088,0 11.85965,33.96491 7.85965,0 11.85965,-33.96491 0.35088,0 L 591.20121,290 Z"/>
		<path d="m 622.67928,274.98246 c -4.42105,0 -8,3.57894 -8,8.07017 0,4.42105 3.57895,8 8,8 4.49123,0 8.07018,-3.57895 8.07018,-8 0,-4.49123 -3.57895,-8.07017 -8.07018,-8.07017 z"/>
		<path d="m 668.40186,232.10526 0,57.89474 21.96491,0 c 12,0 18.94737,-6.59649 18.94737,-16.14035 0,-9.33333 -5.1228,-13.33333 -12.35087,-14.59649 4.91228,-2.52632 7.22807,-7.08772 7.22807,-12.42105 0,-11.01755 -7.85965,-14.73685 -17.82457,-14.73685 l -17.96491,0 z m 13.19298,22.66667 0,-12.49123 1.05264,0 c 5.75438,0 8.77193,1.75439 8.77193,5.89474 0,4.8421 -3.08772,6.59649 -8.77193,6.59649 l -1.05264,0 z m 0,25.05263 0,-13.68421 4.14036,0 c 6.24561,0 9.68421,1.89474 9.68421,7.22807 0,4.5614 -3.4386,6.45614 -9.68421,6.45614 l -4.14036,0 z"/>
		<path d="m 748.1727,232.10526 -12.21053,0 L 712.59375,290 l 14.17544,0 4.2807,-11.57895 22.03509,0 4.2807,11.57895 14.17544,0 -23.36842,-57.89474 z m 0.42105,34.73685 -13.05263,0 6.45614,-16.84211 0.14035,0 6.45614,16.84211 z"/>
		<path d="m 778.73083,232.10526 0,57.89474 13.19298,0 0,-22.87719 17.68421,22.87719 16.77193,0 -19.92983,-23.92982 c 7.08772,-2.24562 11.85965,-8.07018 11.85965,-16.77193 0,-11.36842 -8.14035,-17.19299 -18.87719,-17.19299 l -20.70175,0 z m 13.19298,25.68421 0,-15.15789 1.54386,0 c 4.98245,0 10.94737,0.35088 10.94737,7.57895 0,7.22807 -5.96492,7.57894 -10.94737,7.57894 l -1.54386,0 z"/>
		<path d="m 834.03234,232.10526 0,57.89474 13.19298,0 0,-22.87719 17.68421,22.87719 16.77193,0 -19.92982,-23.92982 c 7.08772,-2.24562 11.85965,-8.07018 11.85965,-16.77193 0,-11.36842 -8.14035,-17.19299 -18.8772,-17.19299 l -20.70175,0 z m 13.19298,25.68421 0,-15.15789 1.54386,0 c 4.98246,0 10.94737,0.35088 10.94737,7.57895 0,7.22807 -5.96491,7.57894 -10.94737,7.57894 l -1.54386,0 z"/>
		<path d="m 902.52687,232.10526 -13.19299,0 0,57.89474 13.19299,0 0,-57.89474 z"/>
		<path d="m 949.11239,232.10526 -33.12281,0 0,57.89474 33.12281,0 0,-11.57895 -19.92982,0 0,-11.64912 19.08772,0 0,-11.57895 -19.08772,0 0,-11.50877 19.92982,0 0,-11.57895 z"/>
	</g>
</svg>

<?xml version="1.0" encoding="utf-8"?>
<svg xmlns="http://www.w3.org/2000/svg" xmlns:svg="http://www.w3.org/2000/svg" version="1.1" viewBox="0 0 1400 340">
	<title>The titlepage for the Standard Ebooks edition of The Little White Bird, by J. M. Barrie</title>
	<g aria-label="THE LITTLE WHITE BIRD">
		<path d="m 108.35087,68.245613 h 18.33918 V 130 h 17.59064 V 68.245613 h 18.33918 V 52.807016 h -54.269 z"/>
		<path d="M 191.54531,99.029239 H 216.4342 V 130 h 17.59065 V 52.807016 H 216.4342 V 83.590642 H 191.54531 V 52.807016 H 173.95467 V 130 h 17.59064 z"/>
		<path d="M 294.39035,52.807016 H 250.2266 V 130 h 44.16375 v -15.4386 h -26.5731 V 99.029239 h 25.45029 V 83.590642 H 267.81725 V 68.245613 h 26.5731 z"/>
		<path d="M 357.67836,52.807016 H 340.08772 V 130 h 44.16374 v -15.4386 h -26.5731 z"/>
		<path d="M 415.49268,52.807016 H 397.90203 V 130 h 17.59065 z"/>
		<path d="m 422.34211,68.245613 h 18.33918 V 130 h 17.59064 V 68.245613 h 18.33919 V 52.807016 h -54.26901 z"/>
		<path d="m 484.35966,68.245613 h 18.33918 V 130 h 17.59064 V 68.245613 h 18.33918 V 52.807016 h -54.269 z"/>
		<path d="M 567.55408,52.807016 H 549.96344 V 130 h 44.16374 v -15.4386 h -26.5731 z"/>
		<path d="M 651.94151,52.807016 H 607.77777 V 130 h 44.16374 v -15.4386 h -26.5731 V 99.029239 H 650.8187 V 83.590642 H 625.36841 V 68.245613 h 26.5731 z"/>
		<path d="m 748.82603,130 h 19.46199 l 21.9883,-77.192984 h -19.46199 l -13.19298,52.959064 h -0.46784 L 743.11843,52.807016 h -13.28655 l -14.03509,52.959064 h -0.46784 L 702.13597,52.807016 H 682.58041 L 704.56872,130 h 19.55555 l 12.35088,-43.321638 z"/>
		<path d="m 817.08624,99.029239 h 24.88889 V 130 h 17.59065 V 52.807016 H 841.97513 V 83.590642 H 817.08624 V 52.807016 H 799.4956 V 130 h 17.59064 z"/>
		<path d="M 893.35822,52.807016 H 875.76757 V 130 h 17.59065 z"/>
		<path d="M 900.20762,68.245613 H 918.5468 V 130 h 17.59064 V 68.245613 h 18.33918 V 52.807016 h -54.269 z"/>
		<path d="M 1009.9751,52.807016 H 965.8114 V 130 h 44.1637 V 114.5614 H 983.40204 V 99.029239 h 25.45026 V 83.590642 H 983.40204 V 68.245613 h 26.57306 z"/>
		<path d="M 1055.6725,52.807016 V 130 h 29.2866 c 16,0 25.2632,-8.79532 25.2632,-21.52047 0,-12.444443 -6.8305,-17.777776 -16.4679,-19.461987 6.5497,-3.368421 9.6374,-9.450292 9.6374,-16.561404 0,-14.690058 -10.4795,-19.649123 -23.766,-19.649123 z m 17.5907,30.222223 V 66.374268 h 1.4035 c 7.6725,0 11.6959,2.339181 11.6959,7.859649 0,6.456141 -4.117,8.795322 -11.6959,8.795322 z m 0,33.403511 V 98.187134 h 5.5205 c 8.3274,0 12.9122,2.526316 12.9122,9.637426 0,6.08187 -4.5848,8.60819 -12.9122,8.60819 z"/>
		<path d="m 1140.5804,52.807016 h -17.5907 V 130 h 17.5907 z"/>
		<path d="M 1156.8641,52.807016 V 130 h 17.5906 V 99.497075 L 1198.0337,130 h 22.3625 l -26.5731,-31.906433 c 9.4503,-2.994152 15.8129,-10.760234 15.8129,-22.362574 0,-15.157895 -10.8538,-22.923977 -25.1696,-22.923977 z m 17.5906,34.245615 V 66.842104 h 2.0585 c 6.6433,0 14.5965,0.467836 14.5965,10.105263 0,9.637428 -7.9532,10.105264 -14.5965,10.105264 z"/>
		<path d="M 1228.9328,52.807016 V 130 h 22.3626 c 21.2397,0 38.9239,-16.09357 38.9239,-38.643276 0,-22.45614 -17.7777,-38.549708 -38.9239,-38.549708 z m 17.5906,61.473684 V 68.526315 h 2.7135 c 13.0994,0 21.9883,10.011696 21.9883,22.923977 -0.094,12.912278 -8.9825,22.830408 -21.9883,22.830408 z"/>
	</g>
	<g aria-label="J. M. BARRIE">
		<path d="m 476.91722,232.10526 h -13.19299 v 38.17544 c 0,5.82456 -2.87719,8.14035 -6.66666,8.14035 -3.36842,0 -7.50877,-3.92982 -7.50877,-3.92982 l -4.21053,11.01754 c 0,0 5.26316,5.54386 13.54386,5.54386 11.57895,0 18.03509,-6.03509 18.03509,-17.40351 z"/>
		<path d="m 497.61897,274.98246 c -4.42105,0 -8,3.57894 -8,8.07017 0,4.42105 3.57895,8 8,8 4.49123,0 8.07018,-3.57895 8.07018,-8 0,-4.49123 -3.57895,-8.07017 -8.07018,-8.07017 z"/>
		<path d="m 591.20121,290 h 13.19298 l -5.19298,-57.89474 h -14.03509 l -12.8421,33.40351 -12.84211,-33.40351 H 545.44682 L 540.25384,290 h 13.19298 l 2.73684,-34.31579 h 0.35088 l 11.85965,33.96491 h 7.85965 l 11.85965,-33.96491 h 0.35088 z"/>
		<path d="m 622.67928,274.98246 c -4.42105,0 -8,3.57894 -8,8.07017 0,4.42105 3.57895,8 8,8 4.49123,0 8.07018,-3.57895 8.07018,-8 0,-4.49123 -3.57895,-8.07017 -8.07018,-8.07017 z"/>
		<path d="M 668.40186,232.10526 V 290 h 21.96491 c 12,0 18.94737,-6.59649 18.94737,-16.14035 0,-9.33333 -5.1228,-13.33333 -12.35087,-14.59649 4.91228,-2.52632 7.22807,-7.08772 7.22807,-12.42105 0,-11.01755 -7.85965,-14.73685 -17.82457,-14.73685 z m 13.19298,22.66667 V 242.2807 h 1.05264 c 5.75438,0 8.77193,1.75439 8.77193,5.89474 0,4.8421 -3.08772,6.59649 -8.77193,6.59649 z m 0,25.05263 v -13.68421 h 4.14036 c 6.24561,0 9.68421,1.89474 9.68421,7.22807 0,4.5614 -3.4386,6.45614 -9.68421,6.45614 z"/>
		<path d="M 748.1727,232.10526 H 735.96217 L 712.59375,290 h 14.17544 l 4.2807,-11.57895 h 22.03509 L 757.36568,290 h 14.17544 z m 0.42105,34.73685 H 735.54112 L 741.99726,250 h 0.14035 z"/>
		<path d="M 778.73083,232.10526 V 290 h 13.19298 V 267.12281 L 809.60802,290 h 16.77193 l -19.92983,-23.92982 c 7.08772,-2.24562 11.85965,-8.07018 11.85965,-16.77193 0,-11.36842 -8.14035,-17.19299 -18.87719,-17.19299 z m 13.19298,25.68421 v -15.15789 h 1.54386 c 4.98245,0 10.94737,0.35088 10.94737,7.57895 0,7.22807 -5.96492,7.57894 -10.94737,7.57894 z"/>
		<path d="M 834.03234,232.10526 V 290 h 13.19298 V 267.12281 L 864.90953,290 h 16.77193 l -19.92982,-23.92982 c 7.08772,-2.24562 11.85965,-8.07018 11.85965,-16.77193 0,-11.36842 -8.14035,-17.19299 -18.8772,-17.19299 z m 13.19298,25.68421 v -15.15789 h 1.54386 c 4.98246,0 10.94737,0.35088 10.94737,7.57895 0,7.22807 -5.96491,7.57894 -10.94737,7.57894 z"/>
		<path d="M 902.52687,232.10526 H 889.33388 V 290 h 13.19299 z"/>
		<path d="M 949.11239,232.10526 H 915.98958 V 290 h 33.12281 v -11.57895 h -19.92982 v -11.64912 h 19.08772 v -11.57895 h -19.08772 v -11.50877 h 19.92982 z"/>
	</g>
</svg>
